icon-svg/tripod-lamp-norm.svg

<svg xmlns="http://www.w3.org/2000/svg" fill="#44739e" viewBox="0 0 24 24"><path d="M12.805 10.008a10.73 10.73 0 0 0 2.219-.323c.744-.208 1.17-.471 1.276-.744a.37.37 0 0 0 .027-.138V3.232A.36.36 0 0 0 16.3 3.1c-.1-.263-.5-.518-1.2-.724a13.116 13.116 0 0 0-6.2 0c-.7.206-1.1.46-1.2.724a.38.38 0 0 0-.028.137V8.8a.38.38 0 0 0 .028.14c.1.273.535.536 1.279.745a10.6 10.6 0 0 0 2.22.323L6.832 22h1.083l3.578-9.827V22h1.018v-9.821L16.085 22h1.083zM9.786 3.423a13.2 13.2 0 0 1 4.426 0c1.2.245 1.162.637-.053.874a13.41 13.41 0 0 1-4.316 0c-1.216-.238-1.254-.629-.057-.874"/></svg>

<?xml version="1.0" encoding="UTF-8"?>
<svg width="24px" fill="#44739e" height="24px" viewBox="0 0 24 24" version="1.1" xmlns="http://www.w3.org/2000/svg" xmlns:xlink="http://www.w3.org/1999/xlink">
            <path d="m 12.805,10.008 a 10.726,10.726 0 0 0 2.219,-0.323 v 0 C 15.768,9.477 16.194,9.214 16.3,8.941 A 0.365,0.365 0 0 0 16.327,8.803 V 3.232 A 0.356,0.356 0 0 0 16.3,3.1 C 16.2,2.837 15.8,2.582 15.1,2.376 a 13.116,13.116 0 0 0 -6.2,0 C 8.2,2.582 7.8,2.836 7.7,3.1 A 0.377,0.377 0 0 0 7.672,3.237 V 8.8 A 0.381,0.381 0 0 0 7.7,8.94 c 0.1,0.273 0.535,0.536 1.279,0.745 a 10.6,10.6 0 0 0 2.22,0.323 L 6.832,22 h 1.083 l 3.578,-9.827 V 22 h 1.018 V 12.179 L 16.085,22 h 1.083 z M 9.786,3.423 a 13.205,13.205 0 0 1 4.426,0 c 1.2,0.245 1.162,0.637 -0.053,0.874 a 13.412,13.412 0 0 1 -4.316,0 C 8.627,4.059 8.589,3.668 9.786,3.423 Z"/>

</svg>
